Numix-Circle/48x48/apps/zathura.svg

<?xml version="1.0" encoding="UTF-8" standalone="no"?>
<svg
   xmlns:dc="http://purl.org/dc/elements/1.1/"
   xmlns:cc="http://creativecommons.org/ns#"
   xmlns:rdf="http://www.w3.org/1999/02/22-rdf-syntax-ns#"
   xmlns:svg="http://www.w3.org/2000/svg"
   xmlns="http://www.w3.org/2000/svg"
   xmlns:xlink="http://www.w3.org/1999/xlink"
   xmlns:sodipodi="http://sodipodi.sourceforge.net/DTD/sodipodi-0.dtd"
   xmlns:inkscape="http://www.inkscape.org/namespaces/inkscape"
   width="48"
   viewBox="0 0 13.546667 13.546667"
   height="48"
   id="svg2"
   version="1.1"
   inkscape:version="0.48.5 r10040"
   sodipodi:docname="zathura.svg">
  <metadata
     id="metadata331">
    <rdf:RDF>
      <cc:Work
         rdf:about="">
        <dc:format>image/svg+xml</dc:format>
        <dc:type
           rdf:resource="http://purl.org/dc/dcmitype/StillImage" />
        <dc:title />
      </cc:Work>
    </rdf:RDF>
  </metadata>
  <sodipodi:namedview
     pagecolor="#ffffff"
     bordercolor="#666666"
     borderopacity="1"
     objecttolerance="10"
     gridtolerance="10"
     guidetolerance="10"
     inkscape:pageopacity="0"
     inkscape:pageshadow="2"
     inkscape:window-width="1280"
     inkscape:window-height="998"
     id="namedview329"
     showgrid="true"
     inkscape:zoom="5.8672185"
     inkscape:cx="3.1962866"
     inkscape:cy="32.225337"
     inkscape:window-x="0"
     inkscape:window-y="0"
     inkscape:window-maximized="1"
     inkscape:current-layer="layer3">
    <inkscape:grid
       type="xygrid"
       id="grid3308" />
  </sodipodi:namedview>
  <defs
     id="defs4">
    <linearGradient
       id="linearGradient3784">
      <stop
         style="stop-color:#9fbc00;stop-opacity:1;"
         offset="0"
         id="stop3786" />
      <stop
         style="stop-color:#b0d000;stop-opacity:1;"
         offset="1"
         id="stop3788" />
    </linearGradient>
    <linearGradient
       id="linearGradient4226">
      <stop
         id="stop3264"
         style="stop-color:#ee9231;stop-opacity:1;"
         offset="0" />
      <stop
         id="stop3266"
         style="stop-color:#ed9d49;stop-opacity:1;"
         offset="1" />
    </linearGradient>
    <linearGradient
       inkscape:collect="always"
       xlink:href="#linearGradient3784"
       id="linearGradient3790"
       x1="-27"
       y1="13"
       x2="-24"
       y2="13"
       gradientUnits="userSpaceOnUse" />
    <clipPath
       id="clipPath-291383647">
      <g
         transform="translate(0,-1004.3622)"
         id="g17">
        <path
           style="fill:#1890d0"
           inkscape:connector-curvature="0"
           d="m -24,13 c 0,1.105 -0.672,2 -1.5,2 -0.828,0 -1.5,-0.895 -1.5,-2 0,-1.105 0.672,-2 1.5,-2 0.828,0 1.5,0.895 1.5,2 z"
           transform="matrix(15.333333,0,0,11.5,414.99999,878.8622)"
           id="path19" />
      </g>
    </clipPath>
  </defs>
  <g
     inkscape:groupmode="layer"
     id="layer1"
     inkscape:label="Shadow"
     sodipodi:insensitive="true">
    <path
       style="opacity:0.05;fill:#000000;fill-opacity:1;stroke:none"
       d="M 25,2 C 12.297451,2 2,12.297451 2,25 2,31.367153 4.6007106,37.116628 8.78125,41.28125 12.865755,44.99361 18.29568,47.25 24.25,47.25 c 12.702549,0 23,-10.297451 23,-23 0,-5.95432 -2.25639,-11.384245 -5.96875,-15.46875 C 37.116628,4.6007105 31.367153,2 25,2 z M 41.28125,8.78125 C 45.135604,12.894061 47.5,18.418655 47.5,24.5 c 0,12.702549 -10.297451,23 -23,23 C 18.418655,47.5 12.894061,45.135604 8.78125,41.28125 12.940939,45.4251 18.664604,48 25,48 37.702549,48 48,37.702549 48,25 48,18.664604 45.4251,12.940939 41.28125,8.78125 z"
       transform="scale(0.28222223,0.28222223)"
       id="path3978"
       inkscape:connector-curvature="0" />
    <path
       style="opacity:0.1;fill:#000000;fill-opacity:1;stroke:none"
       d="M 41.28125,8.78125 C 44.99361,12.865755 47.25,18.29568 47.25,24.25 c 0,12.702549 -10.297451,23 -23,23 -5.95432,0 -11.384245,-2.25639 -15.46875,-5.96875 C 12.894061,45.135604 18.418655,47.5 24.5,47.5 c 12.702549,0 23,-10.297451 23,-23 0,-6.081345 -2.364396,-11.605939 -6.21875,-15.71875 z"
       transform="scale(0.28222223,0.28222223)"
       id="path3976"
       inkscape:connector-curvature="0" />
    <path
       transform="matrix(4.3274074,0,0,3.2455556,117.19278,-35.348334)"
       d="m -24,13 a 1.5,2 0 1 1 -3,0 1.5,2 0 1 1 3,0 z"
       sodipodi:ry="2"
       sodipodi:rx="1.5"
       sodipodi:cy="13"
       sodipodi:cx="-25.5"
       id="path3952"
       style="opacity:0.2;fill:#000000;fill-opacity:1;stroke:none"
       sodipodi:type="arc" />
  </g>
  <g
     inkscape:groupmode="layer"
     id="layer2"
     inkscape:label="Base">
    <path
       sodipodi:type="arc"
       style="fill:url(#linearGradient3790);fill-opacity:1;stroke:none"
       id="path3942"
       sodipodi:cx="-25.5"
       sodipodi:cy="13"
       sodipodi:rx="1.5"
       sodipodi:ry="2"
       d="m -24,13 a 1.5,2 0 1 1 -3,0 1.5,2 0 1 1 3,0 z"
       transform="matrix(0,-4.3274075,3.2455556,0,-35.418894,-103.57556)" />
    <path
       style="opacity:0.1;fill:#000000;fill-opacity:1;stroke:none"
       d="M 40.03125 7.53125 C 43.74361 11.615755 46 17.04568 46 23 C 46 35.702549 35.702549 46 23 46 C 17.04568 46 11.615755 43.74361 7.53125 40.03125 C 11.709416 44.322508 17.537578 47 24 47 C 36.702549 47 47 36.702549 47 24 C 47 17.537578 44.322508 11.709416 40.03125 7.53125 z "
       id="path4027"
       transform="scale(0.28222223,0.28222223)" />
  </g>
  <g
     inkscape:groupmode="layer"
     id="layer3"
     inkscape:label="Symbol">
    <path
       style="opacity:0.1;fill:#000000;fill-opacity:1;fill-rule:nonzero;stroke:none"
       d="m 4.4802779,3.3866662 c -0.1388533,0 -0.2469444,0.1080911 -0.2469444,0.2469445 l 0,6.8438893 c 0,0.138853 0.1080911,0.246945 0.2469444,0.246945 l 5.1505557,0 c 0.1388532,0 0.2469442,-0.108092 0.2469442,-0.246945 l 0,-3.704167 0,-1.6933334 -1.6933331,-1.6933334 -2.2577779,0 -0.5644444,0 -0.8819445,0 z"
       id="path4332"
       inkscape:connector-curvature="0" />
    <path
       id="path67"
       d="m 4.1980557,3.1044445 c -0.1388533,0 -0.2469445,0.1080911 -0.2469445,0.2469445 l 0,6.843889 c 0,0.138853 0.1080912,0.246945 0.2469445,0.246945 l 5.1505557,0 c 0.1388533,0 0.2469445,-0.108092 0.2469445,-0.246945 l -1e-7,-5.3975001 -1.6933334,-1.6933334"
       inkscape:connector-curvature="0"
       style="fill:#e8e8d9;fill-opacity:1;fill-rule:nonzero;stroke:none"
       sodipodi:nodetypes="cssssscc" />
    <path
       id="path79"
       d="m 7.9022224,3.1044445 0,1.6933334 1.6933334,0"
       inkscape:connector-curvature="0"
       style="fill:#ffffff;fill-opacity:1;fill-rule:nonzero;stroke:none"
       sodipodi:nodetypes="ccc" />
    <path
       id="SVGCleanerId_0"
       d="m 9.5955558,6.4911113 0,-1.6933334 -1.6933334,0"
       inkscape:connector-curvature="0"
       style="fill:#000000;fill-opacity:0.2;fill-rule:nonzero;stroke:none"
       sodipodi:nodetypes="ccc" />
    <path
       style="opacity:1;fill:#353535;fill-opacity:1"
       d="M 22.90625 17.34375 C 22.779297 17.367187 22.666015 17.488281 22.53125 17.71875 C 22.261718 18.179688 22.125 19.449219 22.34375 20.6875 C 22.413596 21.075939 22.591219 21.64307 22.78125 22.25 C 22.613707 22.849998 22.450609 23.498439 22.25 24.125 C 21.394531 26.792969 19.535156 29.589846 18.5625 31.09375 C 17.953125 32.039065 16.496093 33.125014 16.375 32.90625 C 16.253906 32.6875 16.671875 32.214845 17.1875 31.4375 C 17.699219 30.660155 19 29.875 19 29.875 C 19 29.875 18.441406 29.832032 17 31.09375 C 15.554688 32.355468 16 32.992193 16.34375 33.1875 C 16.683594 33.378906 17.652344 34.136718 20.90625 28.53125 C 22.051067 26.557712 22.717997 24.760487 23.125 23.25 C 23.525125 24.310081 24.044587 25.387366 24.625 26.0625 C 25.034134 26.539823 25.595643 27.001354 26.21875 27.40625 C 25.675607 27.490362 25.151678 27.570697 24.1875 27.75 C 21.960938 28.164063 20.875 29.0625 20.875 29.0625 C 20.875 29.0625 23.859144 28.079668 26.8125 27.75 C 27.75981 28.284268 28.782276 28.696512 29.65625 28.875 C 31.320312 29.214842 31.71875 28.5 31.71875 28.5 C 31.71875 28.5 31.636715 28.695313 30.78125 28.625 C 30.331547 28.585985 29.201704 28.279057 27.96875 27.6875 C 30.342816 27.532613 31.293459 27.772939 31.53125 27.96875 C 31.800782 28.1875 31.8125 28.4375 31.8125 28.4375 C 31.8125 28.4375 32.164063 28.093748 31.9375 27.75 C 31.746093 27.390624 31.453125 27.082031 29.03125 27.15625 C 28.204415 27.180254 27.661128 27.239368 27.1875 27.28125 C 26.316426 26.786486 25.466752 26.158099 24.8125 25.375 C 24.065644 24.481061 23.604247 23.449862 23.3125 22.4375 C 23.822138 20.132164 23.6875 18.6875 23.6875 18.6875 C 23.6875 18.6875 23.44236 19.797037 23.0625 21.25 C 22.887318 20.287133 22.800312 19.415834 22.75 18.78125 C 22.625 17.253906 23.308594 17.683594 23.40625 17.875 C 23.558594 18.003906 23.625 18.40625 23.625 18.40625 C 23.625 18.40625 23.582029 17.769531 23.3125 17.5 C 23.177734 17.367188 23.033203 17.320313 22.90625 17.34375 z "
       transform="scale(0.28222223,0.28222223)"
       id="path12" />
  </g>
</svg>

<svg xmlns="http://www.w3.org/2000/svg" width="48" viewBox="0 0 13.546667 13.546667" height="48"><defs><linearGradient id="linearGradient3790" x1="-27" x2="-24" gradientUnits="userSpaceOnUse"><stop stop-color="#9fbc00" stop-opacity="1"/><stop offset="1" stop-color="#b0d000" stop-opacity="1"/></linearGradient><clipPath><g transform="translate(0,-1004.3622)"><path d="m -24 13 c 0 1.105 -0.672 2 -1.5 2 -0.828 0 -1.5 -0.895 -1.5 -2 0 -1.105 0.672 -2 1.5 -2 0.828 0 1.5 0.895 1.5 2 z" transform="matrix(15.333333,0,0,11.5,414.99999,878.8622)" fill="#1890d0"/></g></clipPath></defs><g><path d="m 25 2 c -12.703 0 -23 10.297 -23 23 0 6.367 2.601 12.12 6.781 16.281 4.085 3.712 9.514 5.969 15.469 5.969 c 12.703 0 23 -10.297 23 -23 0 -5.954 -2.256 -11.384 -5.969 -15.469 c -4.165 -4.181 -9.914 -6.781 -16.281 -6.781 z m 16.281 6.781 c 3.854 4.113 6.219 9.637 6.219 15.719 c 0 12.703 -10.297 23 -23 23 c -6.081 0 -11.606 -2.364 -15.719 -6.219 4.16 4.144 9.883 6.719 16.219 6.719 12.703 0 23 -10.297 23 -23 0 -6.335 -2.575 -12.06 -6.719 -16.219 z" transform="scale(0.28222223,0.28222223)" opacity="0.05" fill="#000" stroke="none" fill-opacity="1"/><path d="m 41.28 8.781 c 3.712 4.085 5.969 9.514 5.969 15.469 c 0 12.703 -10.297 23 -23 23 -5.954 0 -11.384 -2.256 -15.469 -5.969 c 4.113 3.854 9.637 6.219 15.719 6.219 c 12.703 0 23 -10.297 23 -23 0 -6.081 -2.364 -11.606 -6.219 -15.719 z" transform="scale(0.28222223,0.28222223)" opacity="0.1" fill="#000" stroke="none" fill-opacity="1"/><path transform="matrix(4.3274074,0,0,3.2455556,117.19278,-35.348334)" d="m -24 13 a 1.5 2 0 1 1 -3 0 1.5 2 0 1 1 3 0 z" opacity="0.2" fill="#000" stroke="none" fill-opacity="1"/></g><g><path d="m -24 13 a 1.5 2 0 1 1 -3 0 1.5 2 0 1 1 3 0 z" transform="matrix(0,-4.3274075,3.2455556,0,-35.418894,-103.57556)" fill="url(#linearGradient3790)" stroke="none" fill-opacity="1"/><path d="m 40.03 7.531 c 3.712 4.085 5.969 9.514 5.969 15.469 c 0 12.703 -10.297 23 -23 23 c -5.954 0 -11.384 -2.256 -15.469 -5.969 c 4.178 4.291 10.01 6.969 16.469 6.969 c 12.703 0 23 -10.297 23 -23 c 0 -6.462 -2.677 -12.291 -6.969 -16.469 z" transform="scale(0.28222223,0.28222223)" opacity="0.1" fill="#000" stroke="none" fill-opacity="1"/></g><g><path d="m 4.48 3.387 c -0.139 0 -0.247 0.108 -0.247 0.247 l 0 6.844 c 0 0.139 0.108 0.247 0.247 0.247 l 5.151 0 c 0.139 0 0.247 -0.108 0.247 -0.247 l 0 -3.704 0 -1.693 -1.693 -1.693 -2.258 0 -0.564 0 -0.882 0 z" opacity="0.1" fill="#000" fill-rule="nonzero" stroke="none" fill-opacity="1"/><path d="m 4.198 3.104 c -0.139 0 -0.247 0.108 -0.247 0.247 l 0 6.844 c 0 0.139 0.108 0.247 0.247 0.247 l 5.151 0 c 0.139 0 0.247 -0.108 0.247 -0.247 l 0 -5.398 -1.693 -1.693" fill="#e8e8d9" fill-rule="nonzero" stroke="none" fill-opacity="1"/><path d="m 7.902 3.104 0 1.693 1.693 0" fill="#fff" fill-rule="nonzero" stroke="none" fill-opacity="1"/><path d="m 9.596 6.491 0 -1.693 -1.693 0" fill="#000" fill-rule="nonzero" stroke="none" fill-opacity="0.2"/><path d="m 22.906 17.344 c -0.127 0.023 -0.24 0.145 -0.375 0.375 c -0.27 0.461 -0.406 1.73 -0.188 2.969 c 0.07 0.388 0.247 0.956 0.438 1.563 c -0.168 0.6 -0.331 1.248 -0.531 1.875 c -0.855 2.668 -2.715 5.465 -3.688 6.969 c -0.609 0.945 -2.066 2.031 -2.188 1.813 c -0.121 -0.219 0.297 -0.691 0.813 -1.469 c 0.512 -0.777 1.813 -1.563 1.813 -1.563 c 0 0 -0.559 -0.043 -2 1.219 c -1.445 1.262 -1 1.898 -0.656 2.094 c 0.34 0.191 1.309 0.949 4.563 -4.656 c 1.145 -1.974 1.812 -3.771 2.219 -5.281 c 0.4 1.06 0.92 2.137 1.5 2.813 c 0.409 0.477 0.971 0.939 1.594 1.344 c -0.543 0.084 -1.067 0.164 -2.031 0.344 c -2.227 0.414 -3.313 1.313 -3.313 1.313 c 0 0 2.984 -0.983 5.938 -1.313 c 0.947 0.534 1.97 0.947 2.844 1.125 c 1.664 0.34 2.063 -0.375 2.063 -0.375 c 0 0 -0.082 0.195 -0.938 0.125 c -0.45 -0.039 -1.58 -0.346 -2.813 -0.938 c 2.374 -0.155 3.325 0.085 3.563 0.281 c 0.27 0.219 0.281 0.469 0.281 0.469 c 0 0 0.352 -0.344 0.125 -0.688 c -0.191 -0.359 -0.484 -0.668 -2.906 -0.594 c -0.827 0.024 -1.37 0.083 -1.844 0.125 c -0.871 -0.495 -1.721 -1.123 -2.375 -1.906 c -0.747 -0.894 -1.208 -1.925 -1.5 -2.938 c 0.51 -2.305 0.375 -3.75 0.375 -3.75 c 0 0 -0.245 1.11 -0.625 2.563 c -0.175 -0.963 -0.262 -1.834 -0.313 -2.469 c -0.125 -1.527 0.559 -1.098 0.656 -0.906 c 0.152 0.129 0.219 0.531 0.219 0.531 c 0 0 -0.043 -0.637 -0.313 -0.906 c -0.135 -0.133 -0.279 -0.18 -0.406 -0.156 z" transform="scale(0.28222223,0.28222223)" opacity="1" fill="#353535" fill-opacity="1"/></g></svg>
